assets/img/podcast/listen/stitcher.svg

<svg xmlns="http://www.w3.org/2000/svg" width="100" height="30" fill="none" viewBox="0 0 100 30"><g clip-path="url(#clip0)"><rect width="100" height="30" fill="#fff"/><rect width="100" height="30" fill="#fff"/><rect width="100" height="30" fill="#000"/><rect width="66" height="24" x="31" y="3" fill="#fff"/><path fill="#000" d="M44.9326 17.0859C44.9961 18.3652 46.0654 19.1758 47.6816 19.1758C49.3906 19.1758 50.4502 18.3213 50.4502 16.9492C50.4502 15.875 49.8496 15.2793 48.4189 14.957L47.6084 14.7715C46.7344 14.5713 46.3779 14.293 46.3779 13.8193C46.3779 13.2188 46.915 12.8281 47.7256 12.8281C48.4971 12.8281 49.0439 13.2188 49.1318 13.8389H50.3379C50.2793 12.6279 49.21 11.7783 47.7305 11.7783C46.1533 11.7783 45.1084 12.6279 45.1084 13.9072C45.1084 14.957 45.709 15.5918 46.9883 15.8799L47.9014 16.0898C48.8047 16.2998 49.1904 16.5977 49.1904 17.1055C49.1904 17.6963 48.5898 18.1211 47.7598 18.1211C46.8662 18.1211 46.2412 17.7158 46.1631 17.0859H44.9326ZM52.125 12.3496V13.6924H51.2803V14.6592H52.125V17.5742C52.125 18.6094 52.6133 19.0244 53.8389 19.0244C54.0732 19.0244 54.2979 19 54.4736 18.9658V18.0186C54.3271 18.0332 54.2344 18.043 54.0635 18.043C53.5557 18.043 53.3311 17.8086 53.3311 17.2812V14.6592H54.4736V13.6924H53.3311V12.3496H52.125ZM55.6992 19H56.9053V13.6582H55.6992V19ZM56.2998 12.7891C56.7441 12.7891 57.0469 12.5059 57.0469 12.1201C57.0469 11.7344 56.7441 11.4512 56.2998 11.4512C55.8604 11.4512 55.5527 11.7344 55.5527 12.1201C55.5527 12.5059 55.8604 12.7891 56.2998 12.7891ZM58.7949 12.3496V13.6924H57.9502V14.6592H58.7949V17.5742C58.7949 18.6094 59.2832 19.0244 60.5088 19.0244C60.7432 19.0244 60.9678 19 61.1436 18.9658V18.0186C60.9971 18.0332 60.9043 18.043 60.7334 18.043C60.2256 18.043 60.001 17.8086 60.001 17.2812V14.6592H61.1436V13.6924H60.001V12.3496H58.7949ZM66.9199 15.4551C66.793 14.332 65.9629 13.5508 64.5908 13.5508C62.9844 13.5508 62.042 14.5811 62.042 16.3145C62.042 18.0723 62.9893 19.1074 64.5957 19.1074C65.9482 19.1074 66.7881 18.3555 66.9199 17.2373H65.7676C65.6406 17.7939 65.2207 18.0918 64.5908 18.0918C63.7656 18.0918 63.2676 17.4375 63.2676 16.3145C63.2676 15.2061 63.7607 14.5664 64.5908 14.5664C65.2549 14.5664 65.6553 14.9375 65.7676 15.4551H66.9199ZM68.126 19H69.3369V15.8994C69.3369 15.1328 69.7812 14.6152 70.5771 14.6152C71.2803 14.6152 71.6514 15.0303 71.6514 15.8408V19H72.8623V15.5527C72.8623 14.2832 72.1689 13.5605 71.0264 13.5605C70.2305 13.5605 69.6592 13.9219 69.4053 14.5225H69.3174V11.5928H68.126V19ZM76.5391 14.5127C77.2666 14.5127 77.7451 15.0205 77.7695 15.8115H75.2549C75.3086 15.0303 75.8164 14.5127 76.5391 14.5127ZM77.7793 17.5303C77.6035 17.9258 77.1885 18.1455 76.5879 18.1455C75.792 18.1455 75.2793 17.5889 75.25 16.7002V16.6367H78.9805V16.2461C78.9805 14.5615 78.0674 13.5508 76.5439 13.5508C74.9961 13.5508 74.0342 14.6299 74.0342 16.3486C74.0342 18.0674 74.9814 19.1074 76.5537 19.1074C77.8135 19.1074 78.6973 18.502 78.9268 17.5303H77.7793ZM80.1963 19H81.4072V15.9141C81.4072 15.167 81.9541 14.6787 82.7402 14.6787C82.9453 14.6787 83.2676 14.7129 83.3604 14.7471V13.624C83.248 13.5898 83.0332 13.5703 82.8574 13.5703C82.1689 13.5703 81.5928 13.9609 81.4463 14.4883H81.3633V13.6582H80.1963V19Z"/><g filter="url(#filter0_d)"><path fill="#3792C4" d="M7.26 12.08H3V20.41H7.26V12.08Z"/><path fill="#612268" d="M12.3301 10H8.07007V19.38H12.3301V10Z"/><path fill="#FAC617" d="M17.4 11.04H13.14V20.42H17.4V11.04Z"/><path fill="#EB8A23" d="M22.4701 10H18.2101V19.38H22.4701V10Z"/><path fill="#C33727" d="M27.54 11.04H23.28V18.33H27.54V11.04Z"/></g></g><defs><filter id="filter0_d" width="32.54" height="18.42" x="-1" y="10" color-interpolation-filters="sRGB" filterUnits="userSpaceOnUse"><feFlood flood-opacity="0" result="BackgroundImageFix"/><feColorMatrix in="SourceAlpha" type="matrix" values="0 0 0 0 0 0 0 0 0 0 0 0 0 0 0 0 0 0 127 0"/><feOffset dy="4"/><feGaussianBlur stdDeviation="2"/><feColorMatrix type="matrix" values="0 0 0 0 1 0 0 0 0 1 0 0 0 0 1 0 0 0 0.25 0"/><feBlend in2="BackgroundImageFix" mode="normal" result="effect1_dropShadow"/><feBlend in="SourceGraphic" in2="effect1_dropShadow" mode="normal" result="shape"/></filter><clipPath id="clip0"><rect width="100" height="30" fill="#fff"/></clipPath></defs></svg>

<svg xmlns="http://www.w3.org/2000/svg" width="100" height="30" fill="none"><g clip-path="url(#clip0)"><path fill="#fff" d="M0 0H100V30H0z"/><path fill="#fff" d="M0 0H100V30H0z"/><path fill="#000" d="M0 0H100V30H0z"/><path fill="#fff" d="M31 3H97V27H31z"/><path fill="#000" d="M44.933 17.086c.063 1.28 1.132 2.09 2.749 2.09 1.709 0 2.768-.855 2.768-2.227 0-1.074-.6-1.67-2.031-1.992l-.81-.186c-.875-.2-1.231-.478-1.231-.952 0-.6.537-.99 1.348-.99.771 0 1.318.39 1.406 1.01h1.206c-.059-1.211-1.128-2.06-2.608-2.06-1.577 0-2.622.849-2.622 2.128 0 1.05.601 1.685 1.88 1.973l.913.21c.904.21 1.29.508 1.29 1.015 0 .591-.601 1.016-1.431 1.016-.894 0-1.519-.405-1.597-1.035h-1.23zm7.192-4.736v1.342h-.845v.967h.845v2.915c0 1.035.488 1.45 1.714 1.45.234 0 .459-.024.635-.058v-.947c-.147.014-.24.024-.41.024-.508 0-.733-.234-.733-.762V14.66h1.143v-.967H53.33V12.35h-1.206zM55.699 19h1.206v-5.342H55.7V19zm.6-6.21c.445 0 .748-.284.748-.67 0-.386-.303-.669-.747-.669-.44 0-.747.283-.747.67 0 .385.307.668.747.668zm2.496-.44v1.342h-.845v.967h.845v2.915c0 1.035.488 1.45 1.714 1.45.234 0 .459-.024.635-.058v-.947c-.147.014-.24.024-.41.024-.508 0-.733-.234-.733-.762V14.66h1.143v-.967H60V12.35h-1.206zm8.125 3.105c-.127-1.123-.957-1.904-2.33-1.904-1.606 0-2.548 1.03-2.548 2.763 0 1.758.947 2.793 2.554 2.793 1.352 0 2.192-.752 2.324-1.87h-1.152c-.127.557-.547.855-1.177.855-.825 0-1.323-.654-1.323-1.777 0-1.109.493-1.749 1.323-1.749.664 0 1.064.371 1.177.89h1.152zM68.126 19h1.21v-3.1c0-.767.445-1.285 1.241-1.285.703 0 1.074.415 1.074 1.226V19h1.211v-3.447c0-1.27-.693-1.993-1.836-1.993-.795 0-1.367.362-1.62.963h-.089v-2.93h-1.191V19zm8.413-4.487c.728 0 1.206.508 1.23 1.299h-2.514c.054-.782.561-1.3 1.284-1.3zm1.24 3.017c-.175.396-.59.615-1.191.615-.796 0-1.309-.556-1.338-1.445v-.063h3.73v-.39c0-1.685-.913-2.696-2.436-2.696-1.548 0-2.51 1.079-2.51 2.798 0 1.718.947 2.758 2.52 2.758 1.26 0 2.143-.605 2.373-1.577h-1.148zM80.196 19h1.211v-3.086c0-.747.547-1.235 1.333-1.235.205 0 .528.034.62.068v-1.123a2.085 2.085 0 0 0-.503-.054c-.688 0-1.264.39-1.41.918h-.084v-.83h-1.167V19z"/><g filter="url(#filter0_d)"><path fill="#3792C4" d="M7.26 12.08H3v8.33h4.26v-8.33z"/><path fill="#612268" d="M12.33 10H8.07v9.38h4.26V10z"/><path fill="#FAC617" d="M17.4 11.04h-4.26v9.38h4.26v-9.38z"/><path fill="#EB8A23" d="M22.47 10h-4.26v9.38h4.26V10z"/><path fill="#C33727" d="M27.54 11.04h-4.26v7.29h4.26v-7.29z"/></g></g><defs><filter id="filter0_d" width="32.54" height="18.42" x="-1" y="10" color-interpolation-filters="sRGB" filterUnits="userSpaceOnUse"><feFlood flood-opacity="0" result="BackgroundImageFix"/><feColorMatrix in="SourceAlpha" values="0 0 0 0 0 0 0 0 0 0 0 0 0 0 0 0 0 0 127 0"/><feOffset dy="4"/><feGaussianBlur stdDeviation="2"/><feColorMatrix values="0 0 0 0 1 0 0 0 0 1 0 0 0 0 1 0 0 0 0.25 0"/><feBlend in2="BackgroundImageFix" result="effect1_dropShadow"/><feBlend in="SourceGraphic" in2="effect1_dropShadow" result="shape"/></filter><clipPath id="clip0"><path fill="#fff" d="M0 0H100V30H0z"/></clipPath></defs></svg>
